!!!!SEGMENT: pl-wumfc--n44063--001_zelenski-wladyslaw--dwie-piesni-op-12.krn
!!!cenid: 18xx:4071
!!!COM: Żeleński, Władysław
!!!COM-rismID: pe41024455
!!!CDT: 1837/07/06-1921/01/23
!!!CNT: Polish
!!!OTL: Dwie pieśni op. 12
!!!PDT:
!!!AGN:
!!!SMS-siglum: PL-Wumfc
!!!SMS-shelfmark: N44063
!!!SMS-shelfwork: 001 W
!!!SMS-variant:
!!!SMS-altvar:
!!!NIFC-rismSourceID: 1001177793
!!!NIFC-rismChildID: 1001177793
!!!NIFC-islandoraID: pl-wumfc:7817
!!!URL-pdf-islandora: https://repozytorium.nifc.pl/islandora/object/pl-wumfc%3A7817/datastream/PDF/view
!!!URL-scan: https://polish.musicsources.pl/pl/lokalizacje/galeria/druki-muzyczne/12497-dwie-piesni @EN{Scan on Polish Music Sources Website} @PL{Skany w portalu Dziedzictwo Muzyki Polskiej w otwartym dostępie}
!!!ONB-nifc:
!!!AIN: 2 piano 1 vox
!!!key: e
**kern	**kern	**dynam	**kern	**text	**text	**text	**dynam
*part3	*part2	*part2	*part1	*part1	*part1	*part1	*part1
*staff3	*staff2	*	*staff1	*staff1	*staff1	*staff1	*
*I"Piano	*I"Fortepian.	*	*I"Śpiew.	*	*	*	*
*	*I'pf	*	*I'Ś	*	*	*	*
*Ipiano	*Ipiano	*	*Ivox	*	*	*	*
*ICklav	*ICklav	*	*ICvox	*	*	*	*
*clefF4	*clefG2	*	*clefG2	*	*	*	*
*k[f#]	*k[f#]	*	*k[f#]	*	*	*	*
*e:	*e:	*	*e:	*	*	*	*
*M4/4	*M4/4	*	*M4/4	*	*	*	*
*met(c)	*met(c)	*	*met(c)	*	*	*	*
=1	=1	=1	=1	=1	=1	=1	=1
!	!	!	!LO:TX:a:t=Andante.	!	!	!	!
8r	2r	.	1r	.	.	.	.
8E\L	.	.	.	.	.	.	.
8B\	.	.	.	.	.	.	.
8G\J	.	.	.	.	.	.	.
[2E\	4r	.	.	.	.	.	.
.	(4c/ 4f# 4a	>]	.	.	.	.	.
=2	=2	=2	=2	=2	=2	=2	=2
8E\L]	4B/) 4e 4g	.	1r	.	.	.	.
8E\	.	.	.	.	.	.	.
8B\	4r	.	.	.	.	.	.
8G\J	.	.	.	.	.	.	.
[2E\	4r	.	.	.	.	.	.
.	(4d#X/ 4f# 4cc	>]	.	.	.	.	.
=3!|:	=3!|:	=3!|:	=3!|:	=3!|:	=3!|:	=3!|:	=3!|:
!	!	!	!LO:TX:a:t=sonore	!	!	!	!LO:DY:a
4E\]	8e/L) 8g 8b	.	4.b\	Scho-	Gdy	Gdy	p
.	8B/	.	.	.	.	.	.
4r	8e/	.	.	.	.	.	.
.	8g/J	.	8b\	-waj	ko-	liść	.
4E\	8r	.	4e/	mat-	-cha-	lau-	.
.	8B/L	.	.	.	.	.	.
4r	8e/	.	4e/	-ko	-nek	-ru,	.
.	8g/J	.	.	.	.	.	.
=4	=4	=4	=4	=4	=4	=4	=4
!	!	!	!	!	!	!	!LO:DY:a
4D#X\	8r	.	4f#/	su-	w spra-	Wa-	<
.	8B/L	<	.	.	.	.	.
4r	8f#/	.	4f#/	-knie	-wie	-wru	.
.	8b/J	.	.	.	.	.	.
4E\	8r	.	4g/	mo-	bra-	kwia-	.
.	8B/L	.	.	.	.	.	.
4C/	8e/	.	4a/	-je,	-tniej,	-ty	.
.	8a/J	.	.	.	.	.	.
!LO:LB:g=original	!LO:LB:g=original	!	!LO:LB:g=original	!	!	!	!
=5	=5	=5	=5	=5	=5	=5	=5
*	*^	*	*	*	*	*	*
*	*	*^	*	*	*	*	*	*
4BB/	8r	2ryy	2ryy	.	4b\	Per-	Mści-	Dał	.
.	8B/L	.	.	.	.	.	.	.	.
4B\	8d#X/	.	.	.	4b\	-ły,	-wą	nam	.
.	8b/J	.	.	.	.	.	.	.	.
4C/	8r	8ryy	4ryy	.	4.b\	wień-	nio-	zer-	.
.	8e/L	4.e\	.	.	.	.	.	.	.
4c\	8a/	.	4a\	.	.	.	.	.	.
.	8ee/J	.	.	.	8a/	-ce	-sąc	-wać	[[
=6	=6	=6	=6	=6	=6	=6	=6	=6	=6
4FF#/	8r	8ryy	4ryy	.	2cc\	z róż	broń,	los,	.
.	8e/L	4.e\	.	.	.	.	.	.	.
4F#\ 4A 4c	8a/	.	4a\	.	.	.	.	.	.
.	8ee/J	.	.	[	.	.	.	.	.
4BB/	8r	8ryy	4ryy	.	2r	.	.	.	.
.	8a/L	4.a\	.	>	.	.	.	.	.
4B\ 4f#	8dd#X/	.	4dd#\	.	.	.	.	.	.
.	8bb/J	.	.	.	.	.	.	.	.
*	*v	*v	*v	*	*	*	*	*	*
=7	=7	=7	=7	=7	=7	=7	=7
!	!	!	!	!	!	!	!LO:DY:a
4E\	8r	]	4.b\	Ja-	Przy	Bra-	p
.	8B/L	.	.	.	.	.	.
4r	8e/	.	.	.	.	.	.
.	8g/J	.	8b\	-sne	roz-	-łam	.
4E\	8r	.	4e/	sza-	-sta-	per-	.
.	8B/L	.	.	.	.	.	.
4r	8e/	.	4e/	-ty,	-niu,	-ły,	.
.	8g/J	.	.	.	.	.	.
=8	=8	=8	=8	=8	=8	=8	=8
!	!	!	!	!	!	!	!LO:DY:a
4D#X\	8r	.	4f#/	świe-	raz	dro-	<
.	8B/L	.	.	.	.	.	.
4Dn\	8g#X/	.	4g#X/	-tne	o-	-gie	.
.	8b/J	.	.	.	.	.	.
4C/	8a/L	.	4a/	stro-	-sta-	sza-	.
.	8e/	.	.	.	.	.	.
4GG#X/	8B/	.	4b/	-je,	-tni	-ty,	[[
.	8e/J	.	.	.	.	.	.
!LO:LB:g=original	!LO:LB:g=original	!	!LO:LB:g=original	!	!	!	!
=9	=9	=9	=9	=9	=9	=9	=9
!	!	!	!	!	!	!	!LO:DY:a
4AA/	8c/L	.	4e/	To	Mo-	I	>
.	8e/	.	.	.	.	.	.
4C/	8e/ 8f#	.	4e/	nie	-ją	tre-	.
.	8A/J	.	.	.	.	.	.
2BB/	8e/L 8f#	.	4.e/	dla	ści-	-fi-	.
.	8B/	.	.	.	.	.	.
.	8e/ 8f#	.	.	.	.	.	.
.	8A/J 8d#X	.	8d#X/	mnie	-snął	-łam	]]
=10	=10	=10	=10	=10	=10	=10	=10
4EE/	8G/L 8e	.	4e/	już!	dłoń,	włos;	.
.	8B/	.	.	.	.	.	.
4r	8e/	.	4r	.	.	.	.
.	8a#X/J	.	.	.	.	.	.
4r	8b/L	.	2r	.	.	.	.
.	8e/	.	.	.	.	.	.
4B\	8d#X/	.	.	.	.	.	.
.	8an/J	.	.	.	.	.	.
=11	=11	=11	=11	=11	=11	=11	=11
!	!LO:TUP:b	!	!LO:TX:a:t=Piu moto.	!	!	!	!
*ped	*	*	*	*	*	*	*
12c\L	12e/L 12g	pp	4g/	Nieg-	Wten-	Lecz	.
12c\	12e/ 12g	.	.	.	.	.	.
12c\J	12e/J 12g	.	.	.	.	.	.
!	!LO:TUP:b	!	!	!	!	!	!
12c\L	12e/L 12g	.	8g/	-dyś	-czas	gdy	.
12c\	12e/ 12g	.	.	.	.	.	.
.	.	.	8g/	jam	choć	nas	.
*Xped	*	*	*	*	*	*	*
12c\J	12e/J 12g	.	.	.	.	.	.
!	!LO:TUP:b	!LO:HP:t=crescendo	!	!	!	!	!LO:DY:a
*ped	*	*	*	*	*	*	*
12c\L	12e/L 12a	<	4a/	stro-	smu-	zdra-	<
12c\	12e/ 12a	.	.	.	.	.	.
12c\J	12e/J 12a	.	.	.	.	.	.
!	!LO:TUP:b	!	!	!	!	!	!
12c\L	12e/L 12a	.	4a/	-je,	-tna	-dy	[[
12c\	12e/ 12a	.	.	.	.	.	.
*Xped	*	*	*	*	*	*	*
12c\J	12e/J 12a	.	.	.	.	.	.
=12	=12	=12	=12	=12	=12	=12	=12
*Xtuplet	*Xtuplet	*	*	*	*	*	*
*ped	*	*	*	*	*	*	*
12A\L 12c	12fn/L 12a 12cc	.	4cc\	ró-	lu-	wro-	.
12A\ 12c	12f/ 12a 12cc	.	.	.	.	.	.
12A\J 12c	12f/J 12a 12cc	.	.	.	.	.	.
12Fn\L 12A 12c	12f/L 12a 12cc	.	8cc\	-że	-bi-	-gom	.
12F\ 12A 12c	12f/ 12a 12cc	.	.	.	.	.	.
.	.	.	8cc\	lu-	-łam	prze-	.
*Xped	*	*	*	*	*	*	*
12F\J 12A 12c	12f/J 12a 12cc	.	.	.	.	.	.
!	!	!	!	!	!	!	!LO:DY:a
*ped	*	*	*	*	*	*	*
12C\L 12G 12c	12e/L 12g 12cc 12ee	f	4ee\	-bi-	stro-	-da-	f
12C\ 12G 12c	12e/ 12g 12cc 12ee	.	.	.	.	.	.
12C\J 12G 12c	12e/J 12g 12cc 12ee	.	.	.	.	.	.
12C\L 12G 12c	12e/L 12g 12cc 12ee	.	4ee\	-ła	-je:	-ły,	.
12C\ 12G 12c	12e/ 12g 12cc 12ee	.	.	.	.	.	.
*Xped	*	*	*	*	*	*	*
12C\J 12G 12c	12e/J 12g 12cc 12ee	.	.	.	.	.	.
!LO:LB:g=original	!LO:LB:g=original	!	!	!	!LO:LB:g=original	!	!
=13	=13	=13	=13	=13	=13	=13	=13
*	*^	*	*	*	*	*	*
!	!	!	!	!LO:TX:a:t=con gran espressione	!	!	!	!
*ped	*	*	*	*	*	*	*	*
12DD/L	12r	2ryy	.	[4ee\	Gdy	Lecz	Gdy	.
12D\ 12c	12f#X/L 12ee	.	.	.	.	.	.	.
12D\J 12c	12f#/J 12ee	.	.	.	.	.	.	.
12D\L 12A 12c	12f#/L 12a 12ee	.	.	12ee\]	.	.	.	.
12D\ 12A 12c	12f#/ 12a 12ee	.	.	12cc\	nam	gdy	za-	.
12D\J 12A 12c	12f#/J 12a 12ee	.	.	12b\	na-	się	-legł	.
.	.	8qee/	>	.	.	.	.	.
12FF#X\L	[4eee/	2ee\	.	4a/	-dzie-	krwa-	Pol-	.
12F#\ 12A 12c 12e	.	.	.	.	.	.	.	.
12F#\J 12A 12c 12e	.	.	.	.	.	.	.	.
12F#\L 12A 12c 12e	12eee/L]	.	.	8.a/	-i	-wy	-skę	.
12F#\ 12A 12c 12e	12ccc/	.	.	.	.	.	.	.
*Xped	*	*	*	*	*	*	*	*
12F#\J 12A 12c 12e	12aa/J	.	.	.	.	.	.	.
.	.	.	.	16dd\	wy-	u-	na-	.
*	*v	*v	*	*	*	*	*	*
=14	=14	=14	=14	=14	=14	=14	=14
*ped	*	*	*	*	*	*	*
12BB\L	12dd\L 12aa-X	]	4.dd\	-try-	-koń-	-jeźd-	.
12B\ 12fn	12a-X\ 12dd	pp	.	.	.	.	.
12B\J 12f	12a-\J 12dd	.	.	.	.	.	.
12B\L 12f	12a-\L 12dd	.	.	.	.	.	.
12B\ 12f	12a-\ 12dd	.	.	.	.	.	.
!	!	!	!	!	!	!	!LO:DY:a
.	.	.	8g/	-skał	-czył	-ców	pp
*Xped	*	*	*	*	*	*	*
12B\J 12f	12a-\J 12dd	.	.	.	.	.	.
*ped	*	*	*	*	*	*	*
12c\L 12e	12g\L 12ee	.	4g/	zdrój;	bój,	rój.	.
12c\ 12e	12g\	.	.	.	.	.	.
12c\J 12e	12g\J	.	.	.	.	.	.
12c\L	12e/L 12g	.	4r	.	.	.	.
12c\	12e/ 12g	.	.	.	.	.	.
*Xped	*	*	*	*	*	*	*
12c\J	12e/J 12g	.	.	.	.	.	.
=15	=15	=15	=15	=15	=15	=15	=15
!	!	!	!LO:TX:a:t=lugubre	!	!	!	!
*ped	*	*	*	*	*	*	*
12c\L	12e/L 12g	.	4g/	Lecz	A	Gdy	.
12c\	12e/ 12g	.	.	.	.	.	.
12c\J	12e/J 12g	.	.	.	.	.	.
12c\L	12e/L 12g	.	8g/	gdy	on	w wię-	.
12c\	12e/ 12g	.	.	.	.	.	.
.	.	.	8g/	do	gdzilś	-zach	.
*Xped	*	*	*	*	*	*	*
12c\J	12e/J 12g	.	.	.	.	.	.
*ped	*	*	*	*	*	*	*
12c\L	12e/L 12a-X	.	4a-X/	gro-	po-	ję-	.
12c\	12e/ 12a-	.	.	.	.	.	.
12c\J	12e/J 12a-	.	.	.	.	.	.
12c\L	12e/L 12a-	.	4a-/	-bu	-szedł	-czy	.
12c\	12e/ 12a-	.	.	.	.	.	.
*Xped	*	*	*	*	*	*	*
12c\J	12e/J 12a-	.	.	.	.	.	.
!LO:LB:g=original	!LO:LB:g=original	!	!LO:LB:g=original	!	!	!	!
=16	=16	=16	=16	=16	=16	=16	=16
!	!	!LO:HP:t=crescendo	!	!	!	!	!LO:HP:t=crescendo
*ped	*	*	*	*	*	*	*
12A-X\L 12c	12e/L 12cc	<	4cc\	Pol-	w stro-	na-	<
12A-\ 12c	12e/ 12cc	.	.	.	.	.	.
12A-\J 12c	12e/J 12cc	.	.	.	.	.	.
12A-\L 12c	12e/L 12cc	.	8cc\	-ska	-ny	-ród	.
12A-\ 12c	12e/ 12cc	.	.	.	.	.	.
.	.	.	8cc\	zstą-	nie	nasz	.
*Xped	*	*	*	*	*	*	*
12A-\J 12c	12e/J 12cc	.	.	.	.	.	.
*ped	*	*	*	*	*	*	*
12G\L 12c	12e/L 12b-X 12cc 12ee	.	([4ee\	-pi-	swo-	ca-	.
12G\ 12c	12e/ 12b- 12cc 12ee	.	.	.	.	.	.
12G\J 12c	12e/J 12b- 12cc 12ee	.	.	.	.	.	.
12G\L 12c	12e/L 12b- 12cc 12ee	.	(12ee\L]	.	.	.	.
12G\ 12c	12e/ 12b- 12cc 12ee	.	12dd\J))	.	.	.	.
*Xped	*	*	*	*	*	*	*
12G\J 12c	12e/J 12b- 12cc 12ee	.	12cc\)	-ła,	-je	-ły	.
=17	=17	=17	=17	=17	=17	=17	=17
!	!	!	!	!	!	!	!LO:DY:a
*ped	*	*	*	*	*	*	*
12A\L 12c	12fn\L 12a 12cc 12ffn	f	4ffn\	Je-	Je-	Je-	f
12A\ 12c	12f\ 12a 12cc 12ff	.	.	.	.	.	.
12A\J 12c	12f\J 12a 12cc 12ff	.	.	.	.	.	.
!	!	!	!	!	!	!	!LO:DY:a
12A\L 12c	12f/L 12a	>	8ee\	-den	-den	-den	>
12A\ 12c	12f/ 12a	.	.	.	.	.	.
.	.	.	8dd\	mi	mi	mi	.
12A\J 12c	12f/J 12a	.	.	.	.	.	.
12A\L 12c	12f/L 12a	.	4cc\	tyl-	tyl-	tyl-	.
12A\ 12c	12f/ 12a	.	.	.	.	.	.
12A\J 12c	12f/J 12a	.	.	.	.	.	.
12A\L 12c	12f/L 12a	.	8b/	-ko	-ko	-ko	.
12A\ 12c	12f/ 12a	.	.	.	.	.	.
.	.	.	8a/	przy-	przy-	przy-	]]
*Xped	*	*	*	*	*	*	*
12A\J 12c	12f/J 12a	]]	.	.	.	.	.
=18	=18	=18	=18	=18	=18	=18	=18
!	!	!	!	!	!	!	!LO:DY:a
*ped	*	*	*	*	*	*	*
12B\L	12d#X/L 12a	pp	4.g/	-sto-	-sto-	-sto-	p
12B\	12d#/ 12a	.	.	.	.	.	.
12B\J	12d#/J 12a	.	.	.	.	.	.
12B\L	12d#/L 12a	.	.	.	.	.	.
12B\	12d#/ 12a	.	.	.	.	.	.
.	.	.	8f#X/	-i	-i	-i	.
12B\J	12d#/J 12a	.	.	.	.	.	.
12BB/L	12d#/L 12a	.	4b\	strój:	strój:	strój:	.
12BB/	12d#/ 12a	.	.	.	.	.	.
12BB/J	12d#/J 12a	.	.	.	.	.	.
12BB/L	12d#/L 12a	.	4r	.	.	.	.
12BB/	12d#/ 12a	.	.	.	.	.	.
*Xped	*	*	*	*	*	*	*
12BB/J	12d#/J 12a	.	.	.	.	.	.
!LO:LB:g=original	!LO:LB:g=original	!	!LO:LB:g=original	!	!	!	!
=19	=19	=19	=19	=19	=19	=19	=19
*^	*	*	*	*	*	*	*
!	!	!LO:TX:b:t=cantando	!	!	!	!	!	!
8r	2ryy	2b\	.	1r	.	.	.	.
8E\L	.	.	.	.	.	.	.	.
8B\	.	.	.	.	.	.	.	.
8A\J	.	.	.	.	.	.	.	.
8G\L	4ryy	4e/	.	.	.	.	.	.
8B\	.	.	.	.	.	.	.	.
8E\	(4E/	4e/	.	.	.	.	.	.
8G\J	.	.	.	.	.	.	.	.
*v	*v	*	*	*	*	*	*	*
=20	=20	=20	=20	=20	=20	=20	=20
1E) 1A	1c 1f#	.	4cc^\	Czar-	Czar-	Czar-	.
!	!	!	!LO:TX:a:t=ad libitum	!	!	!	!
.	.	.	8a/	-na	-na	-na	.
.	.	.	8g/	su-	su-	su-	.
.	.	.	4f#/	-kien-	-kien-	-kien-	.
.	.	.	4f#/	-ka!	-ka!	-ka!	.
=21	=21	=21	=21	=21	=21	=21	=21
*^	*	*	*	*	*	*	*
8r	2ryy	2b\	.	1r	.	.	.	.
8E\L	.	.	.	.	.	.	.	.
8B\	.	.	.	.	.	.	.	.
8A\J	.	.	.	.	.	.	.	.
8G/L	4ryy	4e/	.	.	.	.	.	.
8B/	.	.	.	.	.	.	.	.
8E/	4C\	4e/	.	.	.	.	.	.
8A/J	.	.	.	.	.	.	.	.
=22	=22	=22	=22	=22	=22	=22	=22	=22
*	*	*^	*	*	*	*	*	*
2.F#/	1BB	2a/	2e\	.	4a^/	Czar-	Czar-	Czar-	.
.	.	.	.	.	8g/	-na	-na	-na	.
.	.	.	.	.	8f#/	su-	su-	su-	.
!	!	!	!	!	!	!	!	!	!LO:DY:a
!	!	!	!	!	!	!	!	!	!LO:DY:a
.	.	2d#X/	2B\	.	2f#/	-kien-	-kien-	-kien-	< > ]]
4A/	.	.	.	.	.	.	.	.	.
*v	*v	*	*	*	*	*	*	*	*
*	*v	*v	*	*	*	*	*	*
=23	=23	=23	=23	=23	=23	=23	=23
.	8qe/	.	.	.	.	.	.
8r	2ee\	.	2e/	-ka!	-ka!	-ka!	]
8E\L	.	.	.	.	.	.	.
8e\	.	.	.	.	.	.	.
8d\J	.	.	.	.	.	.	.
8c\L	4a/	.	2r	.	.	.	.
8e\	.	.	.	.	.	.	.
8A\	4a/	.	.	.	.	.	.
8c\J	.	.	.	.	.	.	.
!LO:LB:g=original	!LO:LB:g=original	!	!LO:LB:g=original	!	!	!	!
=24	=24	=24	=24	=24	=24	=24	=24
8r	2g\ 2a#X 2gg	f	1r	.	.	.	.
8E\L	.	.	.	.	.	.	.
8e\	.	.	.	.	.	.	.
8d\J	.	.	.	.	.	.	.
8c#X\L	4g/ 4a#	>	.	.	.	.	.
8e\	.	.	.	.	.	.	.
8E\	4g/ 4a#	]]	.	.	.	.	.
8e\J	.	.	.	.	.	.	.
=25	=25	=25	=25	=25	=25	=25	=25
8r	4g/ 4b	p	1r	.	.	.	.
8E\L	.	.	.	.	.	.	.
8B\	4r	.	.	.	.	.	.
8G\J	.	.	.	.	.	.	.
[2E\	4r	.	.	.	.	.	.
.	(4c^/ 4f# 4an	.	.	.	.	.	.
=26	=26	=26	=26	=26	=26	=26	=26
8E\L]	4B/) 4e 4g	.	1r	.	.	.	.
8E\	.	.	.	.	.	.	.
8B\	4r	.	.	.	.	.	.
8G\J	.	.	.	.	.	.	.
[2E\	4r	.	.	.	.	.	.
.	(4d#X^/ 4f# 4cc	.	.	.	.	.	.
=27:|!	=27:|!	=27:|!	=27:|!	=27:|!	=27:|!	=27:|!	=27:|!
!	!LO:TX:b:t=perendosi	!	!LO:TX:b:t=Coda.	!	!	!	!
8E\L]	4e/) 4g 4b	.	1r	.	.	.	.
8E\	.	.	.	.	.	.	.
8B\	4r	.	.	.	.	.	.
8G\J	.	.	.	.	.	.	.
2E\	4r	.	.	.	.	.	.
.	4F#/ 4A 4d#X	pp	.	.	.	.	.
=28	=28	=28	=28	=28	=28	=28	=28
1EE	1G 1B 1e	.	1r	.	.	.	.
==	==	==	==	==	==	==	==
*-	*-	*-	*-	*-	*-	*-	*-
!!!RDF**kern: > = above
!!!RDF**kern: < = below
!!!system-decoration: s1[(s2,s3)]
!!!ENC: Andrzej Gręziak
!!!END: 2022-08-18
!!!ENC: Julita Ruszuk
!!!END: 2022-09-22
!!!YEC: Copyright 2022 Narodowy Instytut Fryderyka Chopina (https://polishscores.org)
!!!YEM: License CC-BY-4.0 (https://creativecommons.org/licenses/by/4.0)
